X:1
T:Title
%%score { ( 1 3 ) | 2 }
L:1/8
M:3/4
K:A
V:1 treble nm="Grand Piano"
V:3 treble 
V:2 bass 
V:1
 z2 z2[Q:1/4=94] EA | A2 A2 GB | [DGB]4 [G,E][DGB] | [DGB]2 [EGB]2 [EA][EGB] |[M:2/4] c4 | %5
[M:1/4] EA |[M:3/4] A2 A2 GB | [DGB]4 [EGB][EBd] | [EAc][DFB] [CEA]2 [B,EG]2 |[M:2/4] [CEA]4 | %10
[M:1/4] [Ec][Ae] |[M:3/4] [Ge][EGB] [EGB]2 A[GB] | [EAc]4 [EAc][=Ge] | [Fe][Fd] [Ec]2 [DEB]2 | %14
[M:2/4] [CEA]4 |] %15
V:2
 z2 z2 [A,C][A,CE] | [A,CE]2 [A,CE]2 [B,DE][G,DE] | E,4 E,E, | E,2 E,D, C,E, | %4
[M:2/4][K:treble] [A,EA]4 |[M:1/4] [A,C][A,CE] |[M:3/4] [A,CE]2 [A,CE]2[K:bass] [B,DE][G,DE] | %7
 E,4 E,G, | A,D, E,2 E,2 |[M:2/4] A,,4 |[M:1/4] A,[A,C] |[M:3/4] [E,B,]E, E,D, C,E, | %12
 A,4 A,[C,A,] | [D,A,][D,A,] [E,A,]2 E,2 |[M:2/4] A,,4 |] %15
V:3
 x6 | x6 | x6 | x6 |[M:2/4] x4 |[M:1/4] x2 |[M:3/4] x6 | x6 | x6 |[M:2/4] x4 |[M:1/4] x2 | %11
[M:3/4] z2 z2 E2 | x6 | x6 |[M:2/4] x4 |] %15

